X: 6
T:Blodau'r Drain
% Nottingham Music Database
Y:AAB
S:TDA II
M:3/4
L:1/4
K:Am
P:A
|:E|"Am"A2B|"Am/c"cBA|"Dm"ed/2c/2B/2A/2|"E7"B2E|"Am"AA/2c/2"Dm/a"B/2d/2|"Am"cBA|\
"E7"^GG/2B/2"Am/e"A/2c/2|"E7"B2:|
P:B
B|"Am"c2c|"G/b"d2d|"C"ee"F/c"f|"C"e2"G/b"d|"Am"c/2B/2c/2d/2c|\
"G7/b"d/2c/2d/2e/2d|
"C"e/2f/2e/2f/2e/2f/2|"G7"g3/2f/2e/2d/2|"C"c/2B/2c/2d/2e/2c/2|\
"G"d/2c/2d/2e/2f/2d/2|
"Am"eea|"E7"^gg/2a/2b/2g/2|"Am"aec|"Dm"fed|"E7"cd/2c/2B/2c/2|"Am"A2||


